X:26
T:L'etoile
Z:Jack Campin, 2014
F:http://www.campin.me.uk/Music/YoupNannetteD.abc
S:p33, p1000222.jpg
M:3/8
L:1/8
Q:1/4=120
K:G
B|GBd|g2f|e/g/fe|d/c/BA|\
  GBd|g2f|e/g/fe|d2   :|
d|ded|c2A|B/c/AB|G/A/Bc|\
  ded|c2A|B/c/AB|G2   :|

